packages/icons/src/components/Icon/assets/default/list-number.svg

<svg width="20" height="20" viewBox="0 0 20 20" fill="none" xmlns="http://www.w3.org/2000/svg">
<path fill-rule="evenodd" clip-rule="evenodd" d="M6.79076 5.65132C6.79076 5.2371 7.12655 4.90132 7.54076 4.90132H16.2354C16.6496 4.90132 16.9854 5.2371 16.9854 5.65132C16.9854 6.06553 16.6496 6.40132 16.2354 6.40132H7.54076C7.12655 6.40132 6.79076 6.06553 6.79076 5.65132ZM6.79076 10.0008C6.79076 9.5866 7.12655 9.25081 7.54076 9.25081H16.234C16.6482 9.25081 16.984 9.5866 16.984 10.0008C16.984 10.415 16.6482 10.7508 16.234 10.7508H7.54076C7.12655 10.7508 6.79076 10.415 6.79076 10.0008ZM6.78931 14.3474C6.78931 13.9332 7.1251 13.5974 7.53931 13.5974H16.234C16.6482 13.5974 16.984 13.9332 16.984 14.3474C16.984 14.7616 16.6482 15.0974 16.234 15.0974H7.53931C7.1251 15.0974 6.78931 14.7616 6.78931 14.3474Z" fill="#727683"/>
<path fill-rule="evenodd" clip-rule="evenodd" d="M3.01453 4.07859C3.01453 3.67625 3.34068 3.3501 3.74302 3.3501H4.55203C4.95437 3.3501 5.28052 3.67625 5.28052 4.07859V6.04203H5.35818C5.76051 6.04203 6.08667 6.36819 6.08667 6.77052C6.08667 7.17286 5.76051 7.49901 5.35818 7.49901H3.74302C3.34068 7.49901 3.01453 7.17286 3.01453 6.77052C3.01453 6.36819 3.34068 6.04203 3.74302 6.04203H3.82354V4.80708H3.74302C3.34068 4.80708 3.01453 4.48092 3.01453 4.07859ZM4.59492 9.10367C4.58514 9.09969 4.57467 9.09771 4.56412 9.09785C4.55357 9.09798 4.54315 9.10023 4.53348 9.10445C4.52381 9.10867 4.51508 9.11478 4.50781 9.12243C4.23056 9.41398 3.76945 9.42558 3.4779 9.14832C3.18634 8.87107 3.17475 8.40996 3.452 8.11841C3.59322 7.96991 3.76273 7.85116 3.95054 7.76917C4.13835 7.68718 4.34067 7.64359 4.54558 7.64099C4.75049 7.63838 4.95385 7.6768 5.14369 7.75398C5.33352 7.83117 5.506 7.94556 5.65095 8.09042C5.7959 8.23529 5.9104 8.40769 5.98771 8.59747C6.06502 8.78726 6.10356 8.9906 6.10108 9.19551C6.0986 9.40043 6.05515 9.60277 5.97327 9.79064C5.89278 9.97533 5.77675 10.1424 5.63183 10.2822L5.54348 10.3706C5.85643 10.4523 6.08739 10.7369 6.08739 11.0755C6.08739 11.4778 5.76123 11.804 5.3589 11.804H3.80834C3.51369 11.804 3.24806 11.6265 3.1353 11.3542C3.02255 11.082 3.08487 10.7687 3.29322 10.5603L4.61951 9.23405C4.62715 9.22678 4.63341 9.2182 4.63763 9.20853C4.64184 9.19886 4.64408 9.18844 4.64421 9.17789C4.64434 9.16734 4.64235 9.15687 4.63837 9.1471C4.63439 9.13732 4.6285 9.12845 4.62103 9.12099C4.61357 9.11353 4.60469 9.10764 4.59492 9.10367ZM3.01453 12.6928C3.01453 12.2904 3.34068 11.9643 3.74302 11.9643H4.5506C4.95799 11.9643 5.34869 12.1261 5.63676 12.4142C5.92483 12.7023 6.08667 13.093 6.08667 13.5004C6.08667 13.7877 6.00618 14.0667 5.85769 14.3072C6.00618 14.5478 6.08667 14.8268 6.08667 15.1141C6.08667 15.5215 5.92483 15.9122 5.63676 16.2002C5.34869 16.4883 4.95799 16.6502 4.5506 16.6502H3.74302C3.34068 16.6502 3.01453 16.324 3.01453 15.9217C3.01453 15.5193 3.34068 15.1932 3.74302 15.1932H4.5506C4.57157 15.1932 4.59169 15.1848 4.60652 15.17C4.62135 15.1552 4.62969 15.1351 4.62969 15.1141C4.62969 15.0931 4.62135 15.073 4.60652 15.0582C4.59403 15.0457 4.57491 15.0364 4.5506 15.0364H4.2814C3.87907 15.0364 3.55291 14.7103 3.55291 14.3079C3.55291 13.9056 3.87907 13.5794 4.2814 13.5794H4.5506C4.57157 13.5794 4.59169 13.5711 4.60652 13.5563C4.62135 13.5415 4.62969 13.5213 4.62969 13.5004C4.62969 13.4794 4.62135 13.4593 4.60652 13.4444C4.59169 13.4296 4.57157 13.4213 4.5506 13.4213H3.74302C3.34068 13.4213 3.01453 13.0951 3.01453 12.6928Z" fill="#727683"/>
</svg>

<svg xmlns="http://www.w3.org/2000/svg" width="20" height="20" fill="none" viewBox="0 0 20 20">
    <path fill="#727683" fill-rule="evenodd" d="M6.79 5.651a.75.75 0 0 1 .75-.75h8.695a.75.75 0 0 1 0 1.5H7.541a.75.75 0 0 1-.75-.75m0 4.35a.75.75 0 0 1 .75-.75h8.694a.75.75 0 0 1 0 1.5H7.541a.75.75 0 0 1-.75-.75m0 4.346a.75.75 0 0 1 .75-.75h8.694a.75.75 0 0 1 0 1.5H7.539a.75.75 0 0 1-.75-.75M3.015 4.079c0-.403.326-.729.728-.729h.809a.73.73 0 0 1 .729.729v1.963h.077a.728.728 0 0 1 0 1.457H3.743a.728.728 0 1 1 0-1.457h.08V4.807h-.08a.73.73 0 0 1-.728-.728m1.58 5.025a.08.08 0 0 0-.087.018.728.728 0 1 1-1.056-1.004 1.536 1.536 0 1 1 2.18 2.164l-.089.089a.729.729 0 0 1-.184 1.433h-1.55a.728.728 0 0 1-.516-1.244L4.62 9.234a.08.08 0 0 0 .018-.087.08.08 0 0 0-.043-.043m-1.58 3.589c0-.403.326-.729.728-.729h.808a1.536 1.536 0 0 1 1.307 2.343A1.536 1.536 0 0 1 4.55 16.65h-.808a.729.729 0 0 1 0-1.457h.808a.08.08 0 0 0 .056-.135.08.08 0 0 0-.056-.022h-.27a.728.728 0 1 1 0-1.457h.27a.08.08 0 1 0 0-.158h-.808a.73.73 0 0 1-.728-.728" clip-rule="evenodd"/>
</svg>
